!!!OTL: Polka (Band 1), S. 266
!!!id: P0870
**kern
*clefG2
*k[b-]
*F:
{16f
=1
16f
8ff
8a
8cc
8f
=2
8e
8a
8g
8g}
=3
{8b-
8e
8g
8c
=4
8e
8f
8a
16r
16a}
=5
{8ff
8a
8cc
8f
=6
8e
8a
8g
8g}
=7
{8.dd
16cc
8b-
8e
=8
8f
16f
16f
8f}
8r
==
*-
!!!minrhy: 16
!!!meters: 2/4 ]  ZZ[4
!!!cut: Polka (Band 1), S. 266
!!!reg: Lothringen
!!!trd: PINCK, Louis: Verklingende Weisen, Bd 1, Metz 1928
!!!rhy1:   X_X_X_X_  X_X_X_X_
!!!rhy2: X_X_X_X_  X_X_X_0X
!!!key: P0870  16  F 2/4 ]  ZZ[4
!!!mod: HEPTATONIK IONISCH]  AMBITUS[11
!!!kad: 2321
!!!akz: +1-7_4-7_+1-7_61_
!!!fot: 'a__b__a__c__
!!!for: 'a__b__a__c__
!!!fok: 'Wd_Vd_Wd_\__
!! PHRAS[VOLLTAKTIG]
!!!fkt: Tanzlied
!! LOTH VKL
!! PR[19] 2K[3] 2G[5] 3K[14] 3G[8] 4A[6] 4Ü[0] 5A[2] 6K[0] 6G[0]
!! 7K[0] 7G[0] 8A[2] MEHR[0] SI[39] ABS[64] SR[8] SP[31]
!! ST[20] 2k[9] 2g[16] 3k[0] 3g[0] 4d[0] 4ü[0] 5d[13] 6k[5] 6g[0]
!! 7k[0] 7g[0] 8d[0] mehr[0] si[42] dm[-3] sr[25] sp[17]
!! 1F[10] 2F[74] 3F[15] 4F[0] LF[0] 2P[1] 3P[0] 4P[0] TRI[0] DF[4] AB[72]
!! TF[0] U3K[0] U3[0] U4[0] U4Ü[0] U5[0] U6K[0] U6[0] U7K[0] U7[5]
!! N1[17] N2K[0] N2[14] N3K[0] N3[8] N4[9] N4Ü[0] N5[20] N6K[0] N6[17]
!!!n7k: 0] N7[5] O1[6] O2K[0] O2[0] O3K[0] O3[0] HÖ[0
